SVG_Azure_Grouped/Deployment/Fidalgo.svg

<?xml version="1.0" encoding="UTF-8" standalone="no"?>
<!-- Generated by Microsoft Visio, SVG Export Fidalgo.svg Page-1 -->

<svg
   xmlns:dc="http://purl.org/dc/elements/1.1/"
   xmlns:cc="http://creativecommons.org/ns#"
   xmlns:rdf="http://www.w3.org/1999/02/22-rdf-syntax-ns#"
   xmlns:svg="http://www.w3.org/2000/svg"
   xmlns="http://www.w3.org/2000/svg"
   xmlns:sodipodi="http://sodipodi.sourceforge.net/DTD/sodipodi-0.dtd"
   xmlns:inkscape="http://www.inkscape.org/namespaces/inkscape"
   width="0.47251275in"
   height="0.78750598in"
   viewBox="0 0 34.021059 56.700308"
   xml:space="preserve"
   class="st3"
   version="1.1"
   id="svg36"
   sodipodi:docname="Fidalgo.svg"
   style="font-size:12px;overflow:visible;color-interpolation-filters:sRGB;fill:none;fill-rule:evenodd;stroke-linecap:square;stroke-miterlimit:3"
   inkscape:version="0.92.5 (2060ec1f9f, 2020-04-08)"><metadata
   id="metadata40"><rdf:RDF><cc:Work
       rdf:about=""><dc:format>image/svg+xml</dc:format><dc:type
         rdf:resource="http://purl.org/dc/dcmitype/StillImage" /></cc:Work></rdf:RDF></metadata><sodipodi:namedview
   pagecolor="#ffffff"
   bordercolor="#666666"
   borderopacity="1"
   objecttolerance="10"
   gridtolerance="10"
   guidetolerance="10"
   inkscape:pageopacity="0"
   inkscape:pageshadow="2"
   inkscape:window-width="640"
   inkscape:window-height="480"
   id="namedview38"
   showgrid="false"
   inkscape:zoom="1.5724074"
   inkscape:cx="22.677781"
   inkscape:cy="29.69533"
   inkscape:window-x="0"
   inkscape:window-y="0"
   inkscape:window-maximized="0"
   inkscape:current-layer="svg36" />
	<style
   type="text/css"
   id="style2">
	<![CDATA[
		.st1 {fill:url(#grad0-6);stroke:none;stroke-linecap:butt;stroke-width:21.8571}
		.st2 {fill:#f2f2f2;stroke:none;stroke-linecap:butt;stroke-width:21.8571}
		.st3 {fill:none;fill-rule:evenodd;font-size:12px;overflow:visible;stroke-linecap:square;stroke-miterlimit:3}
	]]>
	</style>

	<defs
   id="Patterns_And_Gradients">
		<linearGradient
   id="grad0-6"
   x1="-0.00065454401"
   y1="43.276849"
   x2="43.919917"
   y2="43.276849"
   gradientTransform="scale(0.77460419,1.2909819)"
   gradientUnits="userSpaceOnUse">
			<stop
   offset="0"
   stop-color="#5ea0ef"
   stop-opacity="1"
   id="stop4" />
			<stop
   offset="0.18"
   stop-color="#559cec"
   stop-opacity="1"
   id="stop6" />
			<stop
   offset="0.47"
   stop-color="#3c91e5"
   stop-opacity="1"
   id="stop8" />
			<stop
   offset="0.84"
   stop-color="#1380da"
   stop-opacity="1"
   id="stop10" />
			<stop
   offset="1"
   stop-color="#0078d4"
   stop-opacity="1"
   id="stop12" />
		</linearGradient>
	</defs>
	<g
   id="g34"
   transform="translate(-21.856993,-21.85428)">
		<title
   id="title16">Page-1</title>
		<g
   id="group17286-1"
   transform="translate(21.8575,-34.0157)">
			<title
   id="title18">Fidalgo.17286</title>
			<g
   id="group17287-2">
				<title
   id="title20">Sheet.17287</title>
				<g
   id="shape17288-3">
					<title
   id="title22">Sheet.17288</title>
					<path
   d="m 34.02,57.77 v 52.89 a 1.9024,1.86511 0 0 1 -1.91,1.91 H 1.94 A 1.90677,1.8694 0 0 1 0,110.66 V 57.78 a 1.90458,1.86725 0 0 1 1.94,-1.91 h 30.13 a 1.9024,1.86511 0 0 1 1.94,1.9 z"
   class="st1"
   id="path24"
   inkscape:connector-curvature="0"
   style="fill:url(#grad0-6);stroke:none;stroke-width:21.85709953;stroke-linecap:butt" />
				</g>
				<g
   id="shape17289-7"
   transform="translate(4.01253,-1.20053)">
					<title
   id="title27">Sheet.17289</title>
					<path
   d="m 0.51,62.98 h 5.68 a 0.476693,0.467349 0 0 1 0.476693,0.467349 L 6.67,70.45 A 0.476693,0.467349 0 0 1 6.193307,70.917349 L 0.51,70.91 A 0.509493,0.499506 0 0 1 5.07e-4,70.442651 L 0,63.45 a 0.509493,0.499506 0 0 1 0.509493,-0.467349 z m 9.73,0 h 5.51 a 0.476693,0.467349 0 0 1 0.476693,0.467349 L 16.23,70.45 a 0.476693,0.467349 0 0 1 -0.476693,0.467349 L 10.24,70.91 A 0.474506,0.465206 0 0 1 9.763307,70.442651 L 9.76,63.45 a 0.474506,0.465206 0 0 1 0.476693,-0.467349 z m 9.73,0 h 5.51 a 0.509493,0.499506 0 0 1 0.509493,0.467349 L 25.99,70.45 a 0.509493,0.499506 0 0 1 -0.509493,0.467349 L 19.97,70.91 A 0.476693,0.467349 0 0 1 19.493307,70.442651 L 19.49,63.45 a 0.476693,0.467349 0 0 1 0.476693,-0.467349 z M 0.51,75.68 h 5.68 a 0.476693,0.467349 0 0 1 0.476693,0.465206 L 6.67,83.15 A 0.509493,0.499506 0 0 1 6.193307,83.649506 L 0.51,83.65 A 0.511679,0.50165 0 0 1 5.07e-4,83.150494 L 0,76.15 a 0.509493,0.499506 0 0 1 0.509493,-0.465206 z m 9.73,0 h 5.51 a 0.476693,0.467349 0 0 1 0.476693,0.465206 L 16.23,83.15 a 0.509493,0.499506 0 0 1 -0.476693,0.499506 L 10.24,83.65 A 0.509493,0.499506 0 0 1 9.763307,83.150494 L 9.76,76.15 a 0.474506,0.465206 0 0 1 0.476693,-0.465206 z m 9.73,0 h 5.51 a 0.509493,0.499506 0 0 1 0.509493,0.465206 L 25.99,83.15 a 0.509493,0.499506 0 0 1 -0.509493,0.499506 L 19.97,83.65 A 0.509493,0.499506 0 0 1 19.493307,83.150494 L 19.49,76.15 a 0.476693,0.467349 0 0 1 0.476693,-0.465206 z M 0.51,88.42 h 5.68 a 0.476693,0.467349 0 0 1 0.476693,0.467349 L 6.67,95.89 A 0.478879,0.469493 0 0 1 6.193307,96.357349 L 0.51,96.36 A 0.509493,0.499506 0 0 1 5.07e-4,95.892651 L 0,88.75 a 0.509493,0.499506 0 0 1 0.509493,-0.33229 z m 9.73,0 h 5.51 a 0.476693,0.467349 0 0 1 0.647253,0.33229 L 16.4,95.76 a 0.476693,0.467349 0 0 1 -0.476693,0.467349 L 10.24,96.23 A 0.472319,0.463062 0 0 1 9.80048,95.94273 0.474506,0.465206 0 0 1 9.7633067,95.76265 L 9.76,88.76 a 0.476693,0.467349 0 0 1 0.476693,-0.334434 z m 0,12.71 h 5.51 a 0.476693,0.467349 0 0 1 0.476693,0.46521 L 16.23,112.1 a 0.476693,0.467349 0 0 1 -0.476693,0.46735 L 10.24,112.57 A 0.474506,0.465206 0 0 1 9.763307,112.10265 L 9.76,101.59 a 0.476693,0.467349 0 0 1 0.476693,-0.46521 z m 9.73,-12.71 h 5.51 a 0.509493,0.499506 0 0 1 0.509493,0.467349 L 25.99,95.89 a 0.509493,0.499506 0 0 1 -0.509493,0.467349 L 19.97,96.36 A 0.474506,0.465206 0 0 1 19.493307,95.892651 L 19.49,88.75 a 0.476693,0.467349 0 0 1 0.476693,-0.33229 z"
   class="st2"
   id="path29"
   inkscape:connector-curvature="0"
   style="fill:#f2f2f2;stroke:none;stroke-width:21.85709953;stroke-linecap:butt" />
				</g>
			</g>
		</g>
	</g>
</svg>

<?xml version="1.0" encoding="UTF-8" standalone="no"?>
<!DOCTYPE svg PUBLIC "-//W3C//DTD SVG 1.1//EN" "http://www.w3.org/Graphics/SVG/1.1/DTD/svg11.dtd">
<!-- Generated by Microsoft Visio, SVG Export Fidalgo.svg Page-1 -->
<svg xmlns="http://www.w3.org/2000/svg" xmlns:xlink="http://www.w3.org/1999/xlink" xmlns:ev="http://www.w3.org/2001/xml-events"
		width="1.07959in" height="1.56342in" viewBox="0 0 77.7308 112.566" xml:space="preserve" color-interpolation-filters="sRGB"
		class="st3">
	<style type="text/css">
	<![CDATA[
		.st1 {fill:url(#grad0-6);stroke:none;stroke-linecap:butt;stroke-width:21.8571}
		.st2 {fill:#f2f2f2;stroke:none;stroke-linecap:butt;stroke-width:21.8571}
		.st3 {fill:none;fill-rule:evenodd;font-size:12px;overflow:visible;stroke-linecap:square;stroke-miterlimit:3}
	]]>
	</style>

	<defs id="Patterns_And_Gradients">
		<linearGradient id="grad0-6" x1="0" y1="0" x2="1" y2="0" gradientTransform="rotate(90 0.5 0.5)">
			<stop offset="0" stop-color="#5ea0ef" stop-opacity="1"/>
			<stop offset="0.18" stop-color="#559cec" stop-opacity="1"/>
			<stop offset="0.47" stop-color="#3c91e5" stop-opacity="1"/>
			<stop offset="0.84" stop-color="#1380da" stop-opacity="1"/>
			<stop offset="1" stop-color="#0078d4" stop-opacity="1"/>
		</linearGradient>
	</defs>
	<g>
		<title>Page-1</title>
		<g id="group16893-1" transform="translate(21.8575,-34.0157)">
			<title>Fidalgo.16893</title>
			<g id="group16894-2">
				<title>Sheet.16894</title>
				<g id="shape16895-3">
					<title>Sheet.16895</title>
					<path d="M34.02 57.77 L34.02 110.66 A1.9024 1.86511 0 0 1 32.11 112.57 L1.94 112.57 A1.90677 1.8694 0 0 1 -0
								 110.66 L0 57.78 A1.90458 1.86725 0 0 1 1.94 55.87 L32.07 55.87 A1.9024 1.86511 0 0 1 34.01 57.77
								 L34.02 57.77 Z" class="st1"/>
				</g>
				<g id="shape16896-7" transform="translate(4.01253,-1.20053)">
					<title>Sheet.16896</title>
					<path d="M0.51 62.98 L6.19 62.98 a0.476693 0.467349 0 0 1 0.476693 0.467349 L6.67 70.45 a0.476693 0.467349 0
								 0 1 -0.476693 0.467349 L0.51 70.91 a0.509493 0.499506 0 0 1 -0.509493 -0.467349 L0 63.45 a0.509493
								 0.499506 0 0 1 0.509493 -0.467349 L0.51 62.98 ZM10.24 62.98 L15.75 62.98 a0.476693 0.467349 0 0
								 1 0.476693 0.467349 L16.23 70.45 a0.476693 0.467349 0 0 1 -0.476693 0.467349 L10.24 70.91 a0.474506
								 0.465206 0 0 1 -0.476693 -0.467349 L9.76 63.45 a0.474506 0.465206 0 0 1 0.476693 -0.467349 L10.24
								 62.98 ZM19.97 62.98 L25.48 62.98 a0.509493 0.499506 0 0 1 0.509493 0.467349 L25.99 70.45 a0.509493
								 0.499506 0 0 1 -0.509493 0.467349 L19.97 70.91 a0.476693 0.467349 0 0 1 -0.476693 -0.467349 L19.49
								 63.45 a0.476693 0.467349 0 0 1 0.476693 -0.467349 L19.97 62.98 ZM0.51 75.68 L6.19 75.68 a0.476693
								 0.467349 0 0 1 0.476693 0.465206 L6.67 83.15 a0.509493 0.499506 0 0 1 -0.476693 0.499506 L0.51 83.65
								 a0.511679 0.50165 0 0 1 -0.509493 -0.499506 L0 76.15 a0.509493 0.499506 0 0 1 0.509493 -0.465206
								 ZM10.24 75.68 L15.75 75.68 a0.476693 0.467349 0 0 1 0.476693 0.465206 L16.23 83.15 a0.509493 0.499506
								 0 0 1 -0.476693 0.499506 L10.24 83.65 a0.509493 0.499506 0 0 1 -0.476693 -0.499506 L9.76 76.15 a0.474506
								 0.465206 0 0 1 0.476693 -0.465206 ZM19.97 75.68 L25.48 75.68 a0.509493 0.499506 0 0 1 0.509493 0.465206
								 L25.99 83.15 a0.509493 0.499506 0 0 1 -0.509493 0.499506 L19.97 83.65 a0.509493 0.499506 0 0 1 -0.476693
								 -0.499506 L19.49 76.15 a0.476693 0.467349 0 0 1 0.476693 -0.465206 ZM0.51 88.42 L6.19 88.42 a0.476693
								 0.467349 0 0 1 0.476693 0.467349 L6.67 95.89 a0.478879 0.469493 0 0 1 -0.476693 0.467349 L0.51 96.36
								 a0.509493 0.499506 0 0 1 -0.509493 -0.467349 L0 88.75 a0.509493 0.499506 0 0 1 0.509493 -0.33229
								 ZM10.24 88.42 L15.75 88.42 a0.476693 0.467349 0 0 1 0.647253 0.33229 L16.4 95.76 a0.476693 0.467349
								 0 0 1 -0.476693 0.467349 L10.24 96.23 a0.472319 0.463062 0 0 1 -0.43952 -0.28727 a0.474506 0.465206
								 0 0 1 -0.0371733 -0.18008 L9.76 88.76 a0.476693 0.467349 0 0 1 0.476693 -0.334434 L10.24 88.42 ZM10.24
								 101.13 L15.75 101.13 a0.476693 0.467349 0 0 1 0.476693 0.465206 L16.23 112.1 a0.476693 0.467349
								 0 0 1 -0.476693 0.467349 L10.24 112.57 a0.474506 0.465206 0 0 1 -0.476693 -0.467349 L9.76 101.59
								 a0.476693 0.467349 0 0 1 0.476693 -0.465206 ZM19.97 88.42 L25.48 88.42 a0.509493 0.499506 0 0 1
								 0.509493 0.467349 L25.99 95.89 a0.509493 0.499506 0 0 1 -0.509493 0.467349 L19.97 96.36 a0.474506
								 0.465206 0 0 1 -0.476693 -0.467349 L19.49 88.75 a0.476693 0.467349 0 0 1 0.476693 -0.33229 Z"
							class="st2"/>
				</g>
			</g>
		</g>
	</g>
</svg>
